X:0946
T:"Black Donald The Piper"  (jig)  0946
C:after Chief  F. O'Neill
B:O'Neill's Music Of Ireland (The 1850) Lyon & Healy, Chicago, 1903 edition
Z:FROM O'NEILL'S TO NOTEWORTHY, FROM NOTEWORTHY TO ABC, MIDI AND .TXT BY VINCE
BRENNAN July 2003 (HTTP://WWW.SOSYOURMOM.COM)
I:abc2nwc
M:6/8
L:1/8
K:G
dBB efg|dBB BAG|dBB efg|dBG (A2{BA}G)|
dBB ecc|dBB {c}BAG|A2B cde|dBG {B}A2G:|
|:gdd gee|gdc BAG|gddgee|dBG (A2{BA)G)|
gdd gee|gdc BAG|A2B cde|dBG {B}A2G:|
